!!!COM: Mozart, Wolfgang Amadeus
!!!CDT: 1756/01/27/-1791/12/05/
!!!CNT: German
!!!OTL: Piano Sonata No. 5 in G major
!!!SCT1: K<sup>1</sup> 283
!!!SCT2: K<sup>6</sup> 189h
!!!OMV: Mvmt. 1
!!!OMD: Allegro
!!!ODT: 1774///
**kern	**kern	**dynam
*staff2	*staff1	*staff1/2
*>[A,A,B]	*>[A,A,B]	*>[A,A,B]
*>norep[A,B]	*>norep[A,B]	*>norep[A,B]
*>A	*>A	*>A
*clefF4	*clefG2	*clefG2
*k[f#]	*k[f#]	*k[f#]
*G:	*G:	*G:
*M3/4	*M3/4	*M3/4
*MM120	*MM120	*MM120
4r	(8.dd\L	p
.	16b\Jk	.
=1	=1	=1
(8G\L	4dd\)	.
8B\	.	.
8d\	4r	.
8B\	.	.
8d\	(4g/	.
8B\J	.	.
=2	=2	=2
8A\L	4f#/)	.
8c\	.	.
8d\	4r	.
8c\	.	.
8d\	(8.aa\L	.
8c\J	.	.
.	16ff#\Jk	.
=3	=3	=3
8F#\L	4aa\)	.
8A\	.	.
8d\	4r	.
8A\	.	.
8d\	(4cc\	.
8A\J	.	.
=4	=4	=4
8G\L	4b\)	.
8B\	.	.
8d\	4r	.
8B\J	.	.
4G\)	(8.gg\L	.
.	16ff#\Jk)	.
*clefG2	*	*
=5	=5	=5
2c/ 2g/	(8ff#\L	.
.	8ee\J)	.
.	4ee\	.
4r	(8.gg\L	.
.	16ee\Jk)	.
=6	=6	=6
2B/ 2g/	(8ee\L	.
.	8dd\J)	.
.	4dd\	.
4r	(8.gg\L	f
.	16dd\Jk)	.
*clefF4	*	*
=7	=7	=7
4A\ (4c\	4dd'\	.
4G\ 4B\	4dd'\	.
4F#\ 4A\)	4dd'\	.
=8	=8	=8
4G\ 4B\	(16dd\LL	.
.	16ee\	.
.	16ff#\	.
.	16gg\JJ	.
4r	16aa\LL	.
.	16bb\	.
.	16ccc\	.
.	16ddd\JJ	.
4E\ 4G\	16ccc\LL	.
.	16bb\	.
.	16aa\	.
.	16gg\JJ	.
=9	=9	=9
*^	*	*
4r	4r	16ff#\LL	.
.	.	16ee\	.
.	.	16dd\	.
.	.	16cc\JJ	.
(4G/	2D\	16b\LL	.
.	.	16dd\	.
.	.	16b\	.
.	.	16g\JJ	.
4c/)	.	16a/LL	.
.	.	16cc/	.
.	.	16a/	.
.	.	16f#/JJ	.
=10	=10	=10	=10
4B/	4G\	4g/)	.
4GG/	2r	4r	.
4r	.	(8.g/L	p
.	.	16f#/Jk)	.
*v	*v	*	*
=11	=11	=11
2C\ 2G\	(8f#/L	.
.	8e/J)	.
.	4e/	.
4r	(8.g/L	.
.	16e/Jk)	.
=12	=12	=12
2BB\ 2G\	(8e/L	.
.	8d/J)	.
.	4d/	.
4r	(8.gg\L	f
.	16dd\Jk)	.
=13	=13	=13
4A\ (4c\	4dd'\	.
4G\ 4B\	4dd'\	.
4F#\ 4A\)	4dd'\	.
=14	=14	=14
4G\ 4B\	(16dd\LL	.
.	16ee\	.
.	16ff#\	.
.	16gg\JJ	.
4r	16aa\LL	.
.	16bb\	.
.	16ccc\	.
.	16ddd\JJ	.
4E\ 4G\	16ccc\LL	.
.	16bb\	.
.	16aa\	.
.	16gg\JJ	.
=15	=15	=15
*^	*	*
4r	4r	16ff#\LL	.
.	.	16ee\	.
.	.	16dd\	.
.	.	16cc\JJ	.
(4G/	2D\	16b\LL	.
.	.	16dd\	.
.	.	16b\	.
.	.	16g\JJ	.
4c/)	.	16a/LL	.
.	.	16cc/	.
.	.	16a/	.
.	.	16f#/JJ	.
=16	=16	=16	=16
4B/	4G\	4g/)	.
2r	8r	8r	.
.	8GGG/ 8GG/L	(16G/LL	p
.	.	16B/JJ	.
.	8AAA/ 8AA/	16A/LL	.
.	.	16c/	.
.	8BBB/ 8BB/J	16B/	.
.	.	16d/JJ	.
*v	*v	*	*
=17	=17	=17
4CC/ 4C/	4c/)	.
8r	8r	.
8AAA/ 8AA/L	(16A/LL	.
.	16c/JJ	.
8BBB/ 8BB/	16B/LL	.
.	16d/	.
8CC/ 8C/J	16c/	.
.	16e/JJ	.
=18	=18	=18
4DD/ 4D/	4d/)	.
8r	8r	.
8BBB/ 8BB/L	16B/LL	.
.	(16d/JJ	.
8CC/ 8C/	16c/LL	.
.	16e/	.
8DD/ 8D/J	16d/	.
.	16fn/JJ	.
=19	=19	=19
8EE/ 8E/L	16e/LL	.
.	16fn/	.
8DD/ 8D/	16d/	.
.	16e/JJ	.
8CC/ 8C/	16c/LL	.
.	16e/	.
8DD/ 8D/	16d/	.
.	16f/JJ	.
8EE/ 8E/	16e/LL	.
.	16g/	.
8FF#/ 8F#/J	16f#/	.
.	16a/JJ	.
=20	=20	=20
8GG/ 8G/L	16g/LL	.
.	16a/	.
8FF#/ 8F#/	16f#/	.
.	16g/JJ	.
8EE/ 8E/	16e/LL	.
.	16g/	.
8FF#/ 8F#/	16f#/	.
.	16a/JJ	.
8GG/ 8G/	16g/LL	.
.	16b/	.
8AA/ 8A/J	16a/	.
.	16cc/JJ	.
=21	=21	=21
8BB\ 8B\L	16b\LL	.
.	16cc\	.
8AA\ 8A\	16a\	.
.	16b\JJ	.
8GG\ 8G\	16g\LL	.
.	16b\	.
8AA\ 8A\	16a\	.
.	16cc\JJ	.
8BB\ 8B\	16b\LL	.
.	16dd\	.
8C#\ 8c#\J	16cc#\	.
.	16ee\JJ	.
=22	=22	=22
4D\ 4d\	4dd\)	.
4DD/ 4D/	4d/	.
.	16c#Q/LL	.
.	16dQ/JJ	.
4r	4r	.
*clefG2	*	*
=23	=23	=23
(8f#/L	8r	.
8a/	(4aa\	p
8e/	.	.
8a/	4gg\	.
8d/	.	.
8a/J	[8ff#\	.
=24	=24	=24
8c#/L	8ff#\]	.
8a/	4ee\	.
8B/	.	.
8a/	4dd\	.
8A/	.	.
8a/J	8cc#\)	.
=25	=25	=25
8B/L	(16ee\LK	.
.	8.dd\J)	.
8a/	.	.
8c#/	(16ff#\LK	.
.	8.ee\J)	.
8a/	.	.
8d/	(16gg\LK	.
.	8.ff#\J)	.
8a/J	.	.
=26	=26	=26
8e/L	(8.aa\L	.
8a/	.	.
.	16gg\Jk)	.
8c#/	4ee\	.
8a/	.	.
8A/	4r	.
8a/J)	.	.
=27	=27	=27
(16f#/LL	8r	.
16a/	.	.
16f#/	(16aa\LL	.
16a/JJ	16bb\JJ	.
16e/LL	8gg\L)	.
16a/	.	.
16e/	(16gg\L	.
16a/JJ	16aa\JJ	.
16d/LL	8ff#\L)	.
16a/	.	.
16d/	(16ff#\L	.
16a/JJ	16gg\JJ	.
=28	=28	=28
16c#/LL	8ee\L)	.
16a/	.	.
16c#/	(16ee\L	.
16a/JJ	16ff#\JJ	.
16B/LL	8dd\L)	.
16a/	.	.
16B/	(16dd\L	.
16a/JJ	16ee\JJ	.
16A/LL	8cc#\L)	.
16a/	.	.
16A/	(16cc#\L	.
16a/JJ	16ee\JJ	.
=29	=29	=29
16B/LL	16dd\LL	.
16a/	16ee\	.
16B/	16ff#\	.
16a/JJ	16dd\JJ	.
16c#/LL	16ee\LL	.
16a/	16ff#\	.
16c#/	16gg\	.
16a/JJ	16ee\JJ	.
16d/LL	16ff#\LL	.
16a/	16gg\	.
16d/	16aa\	.
16a/JJ	16ff#\JJ	.
=30	=30	=30
16e/LL	16aa\LL	.
16a/	16gg\	.
16e/	16aa\	.
16a/JJ	16gg\JJ	.
16c#/LL	4ee'\)	f
16a/	.	.
16c#/	.	.
16a/JJ)	.	.
*clefF4	*	*
(16A\LL	4r	.
16G\	.	.
16F#\	.	.
16E\JJ	.	.
=31	=31	=31
4D\)	8r	.
.	8dd'\L	p
4r	8cc#'\	.
.	8dd'\J	.
(8c#\L	8ee\ (8gg\L	f
8d\J)	8dd\ 8ff#\J)	.
=32	=32	=32
4D\	8r	.
.	8dd'\L	p
4r	8cc#'\	.
.	8dd'\J	.
(8c#\L	8gg\ (8bb\L	f
8d\J)	8ff#\ 8aa\J)	.
=33	=33	=33
4D\	8r	.
.	8dd'\L	p
4r	8cc#'\	.
.	8dd'\J	.
*clefG2	*	*
(8g#/L	8bb\ (8ddd\L	f
8a/J)	8aa\ 8ccc#\J)	.
=34	=34	=34
(8f#/L	8aa\ (8cccn\L	.
8gn/J)	8gg'\ 8bb'\J)	.
(8d/L	8ffn\ (8gg#\L	.
8c#/J)	8ee\ 8aa\J)	.
(8cn/L	8ee-\ (8ff#\L	.
8B/J)	8dd\ 8ggn\J)	.
=35	=35	=35
4A/	(16gg\LL	.
.	16een\	.
.	16cc#\	.
.	16a\JJ	.
4r	16g#/LL	.
.	16a/	.
.	16b/	.
.	16a/JJ	.
*clefF4	*	*
4G\ 4A\ 4e\	16ggn\LL	.
.	16ee\	.
.	16cc#\	.
.	16a\JJ	.
=36	=36	=36
4F#\ 4A\ 4d\	16aa\LL	.
.	16ff#\	.
.	16dd\	.
.	16a\JJ	.
4r	16g#/LL	.
.	16a/	.
.	16b/	.
.	16a/JJ	.
4F#\ 4A\ 4d\	16aa\LL	.
.	16ff#\	.
.	16dd\	.
.	16a\JJ)	.
=37	=37	=37
*^	*	*
4G\ 4B\ 4e\	4r	(16b\LL	.
.	.	16ee\	.
.	.	16gg\	.
.	.	16bb\JJ)	.
*v	*v	*	*
*clefG2	*	*
*^	*	*
4d/ 4f#/	2A\	(16bb\LL	.
.	.	16aa\	.
.	.	16gg\	.
.	.	16ff#\JJ)	.
4e/ 4g/	.	(16ff#\LL	.
.	.	16ee\	.
.	.	16dd\	.
.	.	16cc#\JJ)	.
=38	=38	=38	=38
4f#/	4d\	8r	.
.	.	8dd'\L	p
4r	2r	8cc#'\	.
.	.	8dd'\J	.
(8g#/L	.	8bb\ (8ddd\L	f
8a/J)	.	8aa\ 8ccc#\J)	.
*v	*v	*	*
=39	=39	=39
(8f#/L	8aa\ (8cccn\L	.
8gn/J)	8gg\ 8bb\J)	.
(8d/L	8ffn\ (8gg#\L	.
8c#/J)	8ee\ 8aa\J)	.
(8cn/L	8ee-\ (8ff#\L	.
8B/J)	8dd\ 8ggn\J)	.
=40	=40	=40
4A/	(16gg\LL	.
.	16een\	.
.	16cc#\	.
.	16a\JJ	.
*clefF4	*	*
8r	16g#/LL	.
.	16a/	.
8A\ 8c#\ 8e\L	16b/	.
.	16a/JJ	.
8G\ 8A\ 8e\	16ggn\LL	.
.	16ee\	.
8G\ 8A\ 8e\J	16cc#\	.
.	16a\JJ	.
=41	=41	=41
4F#\ 4A\ 4d\	16aa\LL	.
.	16ff#\	.
.	16dd\	.
.	16a\JJ	.
8r	16g#/LL	.
.	16a/	.
8F#\ 8A\ 8d\L	16b/	.
.	16a/JJ	.
8F#\ 8A\ 8d\	16aa\LL	.
.	16ff#\	.
8F#\ 8A\ 8d\J	16dd\	.
.	16a\JJ)	.
=42	=42	=42
*^	*	*
4G\ 4B\ 4e\	4r	(16b\LL	.
.	.	16ee\	.
.	.	16gg\	.
.	.	(16bb\JJ)	.
*v	*v	*	*
*clefG2	*	*
*^	*	*
4d/ 4f#/	2A\	16bb\LL	.
.	.	16aa\	.
.	.	16gg\	.
.	.	16ff#\JJ	.
4e/ 4g/	.	(16ff#\LL)	.
.	.	16ee\	.
.	.	16dd\	.
.	.	16cc#\JJ	.
=43	=43	=43	=43
4d\	4f#/	8dd'\L)	.
.	.	(16dd\L	.
.	.	16ff#\JJ	.
8r	2r	16ee\LL	.
.	.	16gg\	.
*v	*v	*	*
*clefF4	*	*
*^	*	*
(16A\LL	.	16ff#\	.
16c#\JJ	.	16aa\JJ)	.
16B\LL	.	(4gg\	.
16d\	.	.	.
16c#\	.	.	.
16e\JJ	.	.	.
*v	*v	*	*
=44	=44	=44
.	16ff#Q/LL	.
.	16ggQ/JJ	.
4d\)	8ff#\L)	.
.	(16dd\L	.
.	16ff#\JJ	.
8r	16ee\LL	.
.	16gg\	.
(16A\LL	16ff#\	.
16c#\JJ	16aa\JJ)	.
16B\LL	(4gg\	.
16d\	.	.
16c#\	.	.
16e\JJ)	.	.
=45	=45	=45
.	16ff#Q/LL	.
.	16ggQ/JJ	.
*	*^	*
(4d\	8r	4ff#\)	p
.	(4bb/	.	.
4c#\	.	4ee\	.
.	4aa/	.	.
4B\	.	4dd\	.
.	[8gg/	.	.
=46	=46	=46	=46
4A\	8gg/]	4cc#\	.
.	4ff#/	.	.
4G\	.	4b\	.
.	4ee/	.	.
4F#\)	.	4a\	.
.	8dd/)	.	.
=47	=47	=47	=47
4G\	(8dd#/L	4b\	.
.	8ee/J)	.	.
4E\	8r	8r	.
.	8gg/L	8b\L	.
4A\	8ee/	8g\	.
.	8cc#/J	8e\J	.
=48	=48	=48	=48
(4d\	16r	4ff#\	f
.	(16gg#/LL	.	.
.	16aa#/	.	.
.	16bb/JJ)	.	.
4c#\	16r	4ee\	.
.	(16bb/LL	.	.
.	16gg#/	.	.
.	16aan/JJ	.	.
4B\	16r	4dd\)	.
.	(16ee/LL	.	.
.	16ff#/	.	.
.	16ggn/JJ)	.	.
=49	=49	=49	=49
4A\	16r	4cc#\	.
.	(16gg/LL	.	.
.	16ee#/	.	.
.	16ff#/JJ	.	.
4G\	16r	4b\)	.
.	(16cc#/LL	.	.
.	16dd#/	.	.
.	16een/JJ)	.	.
4F#\)	16r	4a\	.
.	(16ee/LL	.	.
.	16cc#/	.	.
.	16ddn/JJ)	.	.
*	*v	*v	*
=50	=50	=50
4G\	(16ee\LL	.
.	16gg\	.
.	16bb\	.
.	16gg\JJ	.
4A\	16ff#\LL	.
.	16aa\	.
.	16dd\	.
.	16ff#\JJ	.
4AA/	16ee\LL	.
.	16gg\	.
.	16cc#\	.
.	16ee\JJ	.
=51	=51	=51
(16D\LL	4dd\)	.
16d\	.	.
16c#\	.	.
16d\JJ	.	.
16D\LL	8r	.
16d\	.	.
16c#\	8f#/ 8a/ 8ccn/L	.
16d\JJ	.	.
16D\LL	8d/ 8g/ 8b/	.
16d\	.	.
16c#\	8e/ 8g/ 8cc#/J	.
16d\JJ	.	.
=52	=52	=52
16D\LL	4f#/ 4a/ 4dd/	.
16d\	.	.
16c#\	.	.
16d\JJ	.	.
16D\LL	8r	.
16d\	.	.
16c#\	8ff#\ 8aa\ 8cccn\L	.
16d\JJ	.	.
16D\LL	8dd\ 8gg\ 8bb\	.
16d\	.	.
16c#\	8ee\ 8gg\ 8ccc#\J	.
16d\JJ	.	.
=53	=53	=53
4D\)	4ff#\ 4aa\ 4ddd\	.
4r	4r	.
=:|!	=:|!	=:|!
*>B	*>B	*>B
4r	4r	.
*clefG2	*	*
=54	=54	=54
.	32gg#Q/	.
4r	4aa\	p
4d/ 4f#/	4r	.
4d/ 4f#/	4r	.
=55	=55	=55
4r	(16ggn\LL	.
.	16ff#\	.
.	16ee\	.
.	16dd\JJ	.
4e/ 4g/	4cc#\)	.
4e/ 4g/	4r	.
=56	=56	=56
.	(32ddQ/	.
4r	4ddd\)	.
4f#/ 4a/	4r	.
4f#/ 4a/	4r	.
=57	=57	=57
4r	([4ee\	.
(4g/ 4b/	16ee\LL]	.
.	16ff#\	.
.	16gg\	.
.	16ff#\JJ	.
4a/) 4cc#/	16aa\LL	.
.	16gg\	.
.	16ff#\	.
.	16ee\JJ	.
=58	=58	=58
4r	16gg#\LL	.
.	16aa\	.
.	16gg#\	.
.	16aa\JJ)	.
.	32bbQ/	.
*clefF4	*	*
4D\ 4F#\	4aa\	.
4D\ 4F#\	4r	.
=59	=59	=59
4r	(16aa\LL	.
.	16ggn\	.
.	16ff#\	.
.	16ee\JJ	.
4E\ 4G\	4dd\	.
4E\ 4G\	8cc#\)	.
.	8r	.
=60	=60	=60
4r	(16ccc#\LL	.
.	16ddd\	.
.	16ccc#\	.
.	16ddd\JJ	.
.	32eeeQ/	.
4F#\ 4A\	4ddd\)	.
4F#\ 4A\	4r	.
=61	=61	=61
.	32dddQ/	.
4r	[4ee\	.
4G\ (4B\	(16ee\LL]	.
.	16dd#\	.
.	16ee\	.
.	16ff#\JJ	.
4A\ 4c#\)	16aa\LL	.
.	16gg\	.
.	16ff#\	.
.	16ee\JJ	.
=62	=62	=62
8D'\L	4ddn\)	f
8d'\	.	.
8d'\	8r	.
8d'\	(24ee\LL	p
.	24dd\	.
.	24cc#\JJ	.
8d'\	8dd'\L)	.
8d'\J	8dd'\J	.
=63	=63	=63
8d'\L	8gg'\ 8bb'\L	.
8d'\	8ff#'\ 8aa'\	.
8d'\	8ee'\ 8gg'\	.
8d'\	8dd'\ 8ff#'\	.
8d'\	8ccn'\ 8ee'\	.
8d'\J	8b'\ 8dd'\J	.
=64	=64	=64
8D'\L	4a\ 4cc\	f
8d'\	.	.
8d'\	8r	.
8d'\	(24dd\LL	p
.	24cc\	.
.	24b\JJ	.
8d'\	8cc'\L)	.
8d'\J	8cc'\J	.
=65	=65	=65
8d'\L	8ff#'\ 8aa'\L	.
8d'\	8ee'\ 8gg'\	.
8d'\	8dd'\ 8ff#'\	.
8d'\	8cc'\ 8ee'\	.
8d'\	8b'\ 8dd'\	.
8d'\J	8a\ 8cc\J	.
=66	=66	=66
8D\L	4g/ 4b/	f
8d'\	.	.
8d'\	8r	.
8d'\	(24cc\LL	p
.	24b\	.
.	24a\JJ	.
8d'\	8b'\L)	.
8d'\J	8b'\J	.
=67	=67	=67
8d'\L	8b'\ 8gg'\L	.
8d'\	8a'\ 8ff#'\	.
8d'\	8cc'\ 8ee'\	.
8d'\	8b'\ 8dd'\	.
8d'\	8a'\ 8cc'\	.
8d'\J	8g'\ 8b'\J	.
=68	=68	=68
4d\	4f#/ 4a/	f
8r	8r	.
16D'\LL	16d'/LL	.
16E'\JJ	16e'/JJ	.
8F#'\L	8f#'/L	.
8G'\J	8g'/J	.
=69	=69	=69
4A\	4a/	.
8r	8r	.
16F#'\LL	16f#'/LL	.
16G'\JJ	16g'/JJ	.
8A'\L	8a'/L	.
8B'\J	8b'/J	.
=70	=70	=70
4c\	4cc\	.
4r	8r	.
.	(16ccc\LL	p
.	16bb\JJ	.
4r	8aa\L)	.
.	(16aa\L	.
.	16gg\JJ	.
=71	=71	=71
2.r	8ff#\L)	.
.	(16ff#\L	.
.	16ee\JJ	.
.	8dd\L)	.
.	(16dd\L	.
.	16cc#\JJ)	.
.	(8.dd\L	.
.	16b\Jk	.
=72	=72	=72
(8G\L	4dd\)	.
8B\	.	.
8d\	4r	.
8B\	.	.
8d\	(4g/	.
8B\J	.	.
=73	=73	=73
8A\L	4f#/)	.
8c\	.	.
8d\	4r	.
8c\	.	.
8d\	(8.aa\L	.
8c\J	.	.
.	16ff#\Jk	.
=74	=74	=74
8F#\L	4aa\)	.
8A\	.	.
8d\	4r	.
8A\	.	.
8d\	(4cc\	.
8A\J)	.	.
=75	=75	=75
8G'\	4b\)	f
8B\ (8d\L	.	.
8A\ 8c\	4r	.
8G#\ 8B\J)	.	.
4r	(8.ee\L	p
.	16cc\Jk	.
=76	=76	=76
(8A\L	4ee\)	.
8c\	.	.
8e\	4r	.
8c\	.	.
8e\	(4a/	.
8c\J	.	.
=77	=77	=77
8B\L	4g#/)	.
8d\	.	.
8e\	4r	.
8d\	.	.
8e\	(8.bb\L	.
8d\J	.	.
.	16gg#\Jk	.
=78	=78	=78
8G#\L	4bb\)	.
8B\	.	.
8e\	4r	.
8B\	.	.
8e\	(4dd\	.
8B\J	.	.
=79	=79	=79
8A'\)	4cc'\)	f
8c\ (8e\L	.	.
8B\ 8d\	4r	.
8A\ 8c\J)	.	.
4r	(8.ccc\L	p
.	16aa\Jk)	.
*clefG2	*	*
=80	=80	=80
(8A/L	(16gg\LK	.
.	8.ffn\J)	.
8c/	.	.
8fn/	4ff\	.
8A/	.	.
8B/	4ff\	.
8g/J	.	.
=81	=81	=81
8c/L	(4dd#\	.
8g/	.	.
8cc/	4ee\)	.
8g/	.	.
8e/	(8.ccc\L	.
8g/J	.	.
.	16gg\Jk	.
=82	=82	=82
8c/L	4ee\)	.
8e/	.	.
8g/	(16ee\LL	.
.	16gg\	.
8e/	16ff#\	.
.	16gg\JJ	.
8c/	16aa\LL	.
.	16gg\	.
8e/J)	16ff#\	.
.	16ee\JJ)	.
=83	=83	=83
.	32cc#Q/	.
4B/ 4g/	4dd\	.
*clefF4	*	*
8r	8r	.
8GGG/ 8GG/L	(16G/LL	p
.	16B/JJ	.
8AAA/ 8AA/	16A/LL	.
.	16cn/	.
8BBB/ 8BB/J	16B/	.
.	16d/JJ	.
=84	=84	=84
4CC/ 4C/	4c/)	.
8r	8r	.
8AAA/ 8AA/L	(16A/LL	.
.	16c/JJ	.
8BBB/ 8BB/	16B/LL	.
.	16d/	.
8CC/ 8C/J	16c/	.
.	16e/JJ	.
=85	=85	=85
4DD/ 4D/	4d/)	.
8r	8r	.
8BBB/ 8BB/L	(16B/LL	.
.	16d/JJ	.
8CC/ 8C/	16c/LL	.
.	16e/	.
8DD/ 8D/J	16d/	.
.	16fn/JJ	.
=86	=86	=86
8EE/ 8E/L	16e/LL	.
.	16fn/	.
8DD/ 8D/	16d/	.
.	16e/JJ	.
8CC/ 8C/	16c/LL	.
.	16e/	.
8DD/ 8D/	16d/	.
.	16f/JJ	.
8EE/ 8E/	16e/LL	.
.	16g/	.
8FF#/ 8F#/J	16f#/	.
.	16a/JJ	.
=87	=87	=87
8GG/ 8G/L	16g/LL	.
.	16a/	.
8FF#/ 8F#/	16f#/	.
.	16g/JJ	.
8EE/ 8E/	16e/LL	.
.	16g/	.
8FF#/ 8F#/	16f#/	.
.	16a/JJ	.
8GG/ 8G/	16g/LL	.
.	16b/	.
8AA/ 8A/J	16a/	.
.	16cc/JJ	.
=88	=88	=88
8BB\ 8B\L	16b\LL	.
.	16cc\	.
8AA\ 8A\	16a\	.
.	16b\JJ	.
8GG\ 8G\	16g/LL	.
.	16b/	.
8AA\ 8A\	16a/	.
.	16cc/JJ	.
8BB\ 8B\	16b\LL	.
.	16dd\	.
8C#\ 8c#\J	16cc#\	.
.	16ee\JJ	.
=89	=89	=89
4D\ 4d\	4dd\)	.
4DD/ 4D/	4d/	.
.	16c#Q/LL	.
.	16dQ/JJ	.
4r	4r	.
=90	=90	=90
(8B\L	8r	.
8d\	(4dd\	p
8A\	.	.
8d\	4ccn\	.
8G\	.	.
8d\J	[8b\	.
=91	=91	=91
8F#\L	8b\]	.
8d\	4a/	.
8E\	.	.
8d\	4g/	.
8D\	.	.
8d\J	8f#/)	.
=92	=92	=92
8E\L	(16a/LK	.
.	8.g/J)	.
8d\	.	.
8F#\	16b/LK	.
.	8.a/J	.
8d\	.	.
8G\	16cc\LK	.
.	8.b\J	.
8d\J	.	.
=93	=93	=93
8A\L	(8.dd\L	.
8d\	.	.
.	16cc\Jk)	.
8F#\	4a/	.
8d\	.	.
8D\	4r	.
8d\J)	.	.
*clefG2	*	*
=94	=94	=94
(16b\LL	8r	.
16dd\	.	.
16b\	(16ddd\LL	.
16dd\JJ	16eee\JJ	.
16a\LL	8ccc\L)	.
16dd\	.	.
16a\	(16ccc\L	.
16dd\JJ	16ddd\JJ	.
16g\LL	8bb\L)	.
16dd\	.	.
16g\	(16bb\L	.
16dd\JJ	16ccc\JJ	.
=95	=95	=95
16f#/LL	8aa\L)	.
16dd/	.	.
16f#/	(16aa\L	.
16dd/JJ	16bb\JJ	.
16e/LL	8gg\L)	.
16dd/	.	.
16e/	(16gg\L	.
16dd/JJ	16aa\JJ	.
16d/LL	8ff#\L)	.
16dd/	.	.
16d/	(16ff#\L	.
16dd/JJ	16aa\JJ	.
=96	=96	=96
16e/LL	16gg\LL	.
16dd/	16aa\	.
16e/	16bb\	.
16dd/JJ	16gg\JJ	.
16f#/LL	16aa\LL	.
16dd/	16bb\	.
16f#/	16ccc\	.
16dd/JJ	16aa\JJ	.
16g/LL	16bb\LL	.
16dd/	16ccc\	.
16g/	16ddd\	.
16dd/JJ	16bb\JJ	.
=97	=97	=97
16a\LL	16ddd\LL	.
16dd\	16ccc\	.
16a\	16ddd\	.
16dd\JJ	16ccc\JJ	.
16f#/LL	4aa'\)	f
16dd/	.	.
16f#/	.	.
16dd/JJ)	.	.
*clefF4	*	*
(16d\LL	4r	.
16c\	.	.
16B\	.	.
16A\JJ)	.	.
=98	=98	=98
4GG/ 4G/	8r	.
.	8g'/L	p
4r	8f#'/	.
.	8g'/J	.
(8F#\L	(8a/ 8cc/L	f
8G\J)	8g/) 8b/J	.
=99	=99	=99
4GG/	8r	.
.	8g'/L	p
4r	8f#'/	.
.	8g'/J	.
(8F#\L	8cc\ (8ee\L	f
8G\J)	8b\ 8dd\J)	.
=100	=100	=100
4GG/	8r	.
.	8g'/L	p
4r	8f#'/	.
.	8g/J	.
(8c#\L	8ee\ (8gg\L	f
8d\J)	8dd\ 8ff#\J)	.
=101	=101	=101
(8B\L	8dd\ (8ffn\L	.
8cn\J)	8cc\ 8ee\J)	.
(8G\L	8b-\ (8cc#\L	.
8F#\J)	8a\ 8dd\J)	.
(8Fn\L	(8a-/ 8bn/L	.
8E\J)	8g/) 8ccn/J	.
=102	=102	=102
4D\	(16cc/LL	.
.	16an/	.
.	16f#/	.
.	16d/JJ	.
4r	16c#/LL	.
.	16d/	.
.	16e/	.
.	16d/JJ	.
4C\ 4D\ 4A\	16ccn/LL	.
.	16a/	.
.	16f#/	.
.	16d/JJ	.
=103	=103	=103
4BB\ 4D\ 4G\	16dd/LL	.
.	16b/	.
.	16g/	.
.	16d/JJ	.
4r	16c#/LL	.
.	16d/	.
.	16e/	.
.	16d/JJ	.
4BB\ 4D\ 4G\	16dd/LL	.
.	16b/	.
.	16g/	.
.	16d/JJ)	.
=104	=104	=104
*^	*	*
4r	4C\ 4E\ 4A\	(16e/LL	.
.	.	16a/	.
.	.	16cc/	.
.	.	16ee/JJ)	.
4G/ 4B/	2D\	(16ee\LL	.
.	.	16dd\	.
.	.	16cc\	.
.	.	16b\JJ)	.
4A/ 4c/	.	(16b/LL	.
.	.	16a/	.
.	.	16g/	.
.	.	16f#/JJ)	.
=105	=105	=105	=105
4G\	4B/	8r	.
.	.	8g'/L	p
4r	2r	8f#'/	.
.	.	8g'/J	.
(8c#\L	.	8ee\ (8gg\L	f
8d\J)	.	8dd\ 8ff#\J)	.
*v	*v	*	*
=106	=106	=106
(8B\L	8dd\ (8ffn\L	.
8cn\J)	8cc\ 8ee\J)	.
(8G\L	8b-\ (8cc#\L	.
8F#\J)	8a\ 8dd\J)	.
(8Fn\L	(8a-/ 8bn/L	.
8E\J)	8g/) 8ccn/J	.
=107	=107	=107
4d\	(16ccc\LL	.
.	16aan\	.
.	16ff#\	.
.	16dd\JJ	.
*clefG2	*	*
8r	16cc#\LL	.
.	16dd\	.
8d/ 8f#/ 8a/L	16ee\	.
.	16dd\JJ	.
8c/ 8d/ 8a/	16cccn\LL	.
.	16aa\	.
8c/ 8d/ 8a/J	16ff#\	.
.	16dd\JJ	.
=108	=108	=108
4B/ 4d/ 4g/	16ddd\LL	.
.	16bb\	.
.	16gg\	.
.	16dd\JJ	.
8r	16cc#\LL	.
.	16dd\	.
8B/ 8d/ 8g/L	16ee\	.
.	16dd\JJ	.
8B/ 8d/ 8g/	16ddd\LL	.
.	16bb\	.
8B/ 8d/ 8g/J	16gg\	.
.	16dd\JJ)	.
=109	=109	=109
*^	*	*
4c/ 4e/ 4a/	4r	(16ee\LL	.
.	.	16aa\	.
.	.	16ccc\	.
.	.	16eee\JJ)	.
4g/ 4b/	2d\	(16eee\LL	.
.	.	16ddd\	.
.	.	16ccc\	.
.	.	16bb\JJ)	.
4a/ 4cc/	.	(16bb\LL	.
.	.	16aa\	.
.	.	16gg\	.
.	.	16ff#\JJ	.
=110	=110	=110	=110
4b/	4g\	8gg'\L)	.
.	.	(16gg\L	.
.	.	16bb\JJ	.
8r	2r	16aa\LL	.
.	.	16ccc\	.
(16d/LL	.	16bb\	.
16f#/JJ	.	16ddd\JJ)	.
16e/LL	.	(4ccc\	.
16g/	.	.	.
16f#/	.	.	.
16a/JJ	.	.	.
*v	*v	*	*
=111	=111	=111
.	16bbQ/LL	.
.	16cccQ/JJ	.
4g/)	8bb'\)	.
.	(16g/LL	.
.	16b/JJ	.
8r	16a\LL	.
.	16cc\	.
*clefF4	*	*
(16D\LL	16b\	.
16F#\JJ	16dd\JJ)	.
16E\LL	(4cc\	.
16G\	.	.
16F#\	.	.
16A\JJ	.	.
=112	=112	=112
.	16bQ/LL	.
.	16ccQ/JJ)	.
*	*^	*
4G\	8r	4b\	p
.	(4ee/	.	.
4F#\	.	4a\	.
.	4dd/	.	.
4E\	.	4g\	.
.	[8cc/	.	.
=113	=113	=113	=113
4D\	8cc/]	4f#\	.
.	4b/	.	.
4C/	.	4e\	.
.	4a/	.	.
4BB/)	.	4d\	.
.	8g/)	.	.
=114	=114	=114	=114
4C/	(8g#/L	4e\	.
.	8a/J)	.	.
4AA/	8r	8r	.
.	8cc/L	8a\L	.
4D\	8b/	8gn\	.
.	8a/J	8f#\J	.
=115	=115	=115	=115
(4g\	16r	4bb\	f
.	(16ccc#/LL	.	.
.	16ddd#/	.	.
.	16eee/JJ)	.	.
4f#\	16r	4aa\	.
.	(16eee/LL	.	.
.	16ccc#/	.	.
.	16dddn/JJ	.	.
4e\	16r	4gg\)	.
.	(16aa/LL	.	.
.	16bb/	.	.
.	16cccn/JJ)	.	.
=116	=116	=116	=116
4d\	16r	4ff#\	.
.	(16ccc/LL	.	.
.	16aa#/	.	.
.	16bb/JJ)	.	.
4c\	16r	4ee\	.
.	(16ff#/LL	.	.
.	16gg#/	.	.
.	16aan/JJ)	.	.
4B\)	16r	4dd\	.
.	(16aa/LL	.	.
.	16ff#/	.	.
.	16ggn/JJ)	.	.
*	*v	*v	*
=117	=117	=117
4c\	(16ee\LL	.
.	16gg\	.
.	16ee\	.
.	16cc\JJ	.
4d\	16b\LL	.
.	16dd\	.
.	16g\	.
.	16b\JJ	.
4D\	16a/LL	.
.	16cc/	.
.	16f#/	.
.	16a/JJ	.
=118	=118	=118
(16GG/LL	4g/)	.
16G/	.	.
16F#/	.	.
16G/JJ	.	.
16GG/LL	8r	.
16G/	.	.
16F#/	8d/ 8fn/ 8b/L	.
16G/JJ	.	.
16GG/LL	8e/ 8g/ 8cc/	.
16G/	.	.
16F#/	8f#/ 8a/ 8cc/J	.
16G/JJ	.	.
=119	=119	=119
16GG/LL	4g/ 4b/	.
16G/	.	.
16F#/	.	.
16G/JJ	.	.
16GG/LL	8r	.
16G/	.	.
16F#/	8b\ 8dd\ 8ffn\L	.
16G/JJ	.	.
16GG/LL	8cc\ 8ee\	.
16G/	.	.
16F#/	8a\ 8cc\ 8ff#\J	.
16G/JJ	.	.
=120	=120	=120
4GG/)	4b\ 4dd\ 4gg\	.
4r	4r	.
==	==	==
*-	*-	*-
!!!SMS: Alte Mozart-Ausgabe, Band 20, Breitkopf &amp; H&auml;rtel 1877-1883.
!!!ONB: Stich und Druck von Breitkopf &amp; H&auml;rtel in Leipzig
!!!ONB: Ausgegeben 1878
!!!ENC: Craig Stuart Sapp
!!!END: 2009/10/05/
!!!title: @{OTL}, K 283 (189h), @{OMV}
!!!hum2abc: --no-tempo -s 0.65 --spacing 2.0 -p "%gracespace  0 6.0 12.0"
!!!ONB: Not proofread
